images/icon-facebook-white.svg

<?xml version="1.0" encoding="UTF-8" standalone="no"?>
<svg width="50px" height="50px" viewBox="0 0 50 50" version="1.1" xmlns="http://www.w3.org/2000/svg" xmlns:xlink="http://www.w3.org/1999/xlink" xmlns:sketch="http://www.bohemiancoding.com/sketch/ns">
    <title>Facebook</title>
    <description>Created with Sketch (http://www.bohemiancoding.com/sketch)</description>
    <defs></defs>
    <g id="Page-1" stroke="none" stroke-width="1" fill="none" fill-rule="evenodd" sketch:type="MSPage">
        <g id="Facebook" sketch:type="MSArtboardGroup" fill="#ffffff">
            <path d="M25,50 C38.8071194,50 50,38.8071194 50,25 C50,11.1928806 38.8071194,0 25,0 C11.1928806,0 0,11.1928806 0,25 C0,38.8071194 11.1928806,50 25,50 Z M25,47 C37.1502651,47 47,37.1502651 47,25 C47,12.8497349 37.1502651,3 25,3 C12.8497349,3 3,12.8497349 3,25 C3,37.1502651 12.8497349,47 25,47 Z M26.8145197,36 L26.8145197,24.998712 L30.0687449,24.998712 L30.5,21.2076072 L26.8145197,21.2076072 L26.8200486,19.3101227 C26.8200486,18.3213442 26.9207209,17.7915341 28.4425538,17.7915341 L30.4769629,17.7915341 L30.4769629,14 L27.2222769,14 C23.3128757,14 21.9368678,15.8390937 21.9368678,18.9318709 L21.9368678,21.2080366 L19.5,21.2080366 L19.5,24.9991413 L21.9368678,24.9991413 L21.9368678,36 L26.8145197,36 Z M26.8145197,36" id="Oval-1" sketch:type="MSShapeGroup"></path>
        </g>
    </g>
</svg>

<svg width="50" height="50" xmlns="http://www.w3.org/2000/svg" xmlns:sketch="http://www.bohemiancoding.com/sketch/ns"><title>Facebook</title><path d="M25 50c13.807 0 25-11.193 25-25s-11.193-25-25-25-25 11.193-25 25 11.193 25 25 25zm0-3c12.15 0 22-9.85 22-22s-9.85-22-22-22-22 9.85-22 22 9.85 22 22 22zm1.815-11v-11.001h3.254l.431-3.791h-3.685l.006-1.897c0-.989.101-1.519 1.623-1.519h2.034v-3.792h-3.255c-3.909 0-5.285 1.839-5.285 4.932v2.276h-2.437v3.791h2.437v11.001h4.878zm0 0" sketch:type="MSShapeGroup" fill="#fff"/></svg>
